fs/contact_card_link_16_filled.svg

<svg viewBox="0 0 16 16" fill="none" xmlns="http://www.w3.org/2000/svg" height="1em" width="1em">
  <path d="M2.75 3C1.7835 3 1 3.7835 1 4.75V11.25C1 12.2165 1.7835 13 2.75 13H5.03544C5.01209 12.8367 5 12.6698 5 12.5C5 11.9629 5.12098 11.4541 5.33717 10.9993C4.99526 11.0059 4.65269 10.9675 4.31845 10.8839L4.26507 10.8706C3.52158 10.6847 3 10.0167 3 9.2503C3 8.77632 3.38424 8.39207 3.85823 8.39207H6.66454C7.10125 8.39207 7.46177 8.71826 7.51578 9.14028C7.82799 9.04897 8.15828 9 8.5 9H12.5C13.4793 9 14.3647 9.40223 15 10.0505V4.75C15 3.7835 14.2165 3 13.25 3H2.75ZM6.61821 6.35683C6.61821 7.10619 6.01074 7.71366 5.26138 7.71366C4.51203 7.71366 3.90455 7.10619 3.90455 6.35683C3.90455 5.60747 4.51203 5 5.26138 5C6.01074 5 6.61821 5.60747 6.61821 6.35683ZM9 6.5C9 6.22386 9.22386 6 9.5 6H12.5C12.7761 6 13 6.22386 13 6.5C13 6.77614 12.7761 7 12.5 7H9.5C9.22386 7 9 6.77614 9 6.5ZM8.5 10C7.11929 10 6 11.1193 6 12.5C6 13.8807 7.11929 15 8.5 15H9C9.27614 15 9.5 14.7761 9.5 14.5C9.5 14.2239 9.27614 14 9 14H8.5C7.67157 14 7 13.3284 7 12.5C7 11.6716 7.67157 11 8.5 11H9C9.27614 11 9.5 10.7761 9.5 10.5C9.5 10.2239 9.27614 10 9 10H8.5ZM12 10C11.7239 10 11.5 10.2239 11.5 10.5C11.5 10.7761 11.7239 11 12 11H12.5C13.3284 11 14 11.6716 14 12.5C14 13.3284 13.3284 14 12.5 14H12C11.7239 14 11.5 14.2239 11.5 14.5C11.5 14.7761 11.7239 15 12 15H12.5C13.8807 15 15 13.8807 15 12.5C15 11.1193 13.8807 10 12.5 10H12ZM8.5 12C8.22386 12 8 12.2239 8 12.5C8 12.7761 8.22386 13 8.5 13H12.5C12.7761 13 13 12.7761 13 12.5C13 12.2239 12.7761 12 12.5 12H8.5Z" fill="#212121"/>
</svg>

<svg viewBox="0 0 16 16" fill="none" xmlns="http://www.w3.org/2000/svg" height="1em" width="1em">
  <path d="M2.75 3A1.75 1.75 0 0 0 1 4.75v6.5c0 .966.784 1.75 1.75 1.75h2.285a3.53 3.53 0 0 1 .302-2 3.889 3.889 0 0 1-1.019-.116l-.053-.013A1.67 1.67 0 0 1 3 9.25c0-.475.384-.859.858-.859h2.807c.436 0 .797.326.85.748a3.52 3.52 0 0 1 .985-.14h4c.98 0 1.865.402 2.5 1.05v-5.3A1.75 1.75 0 0 0 13.25 3H2.75Zm3.868 3.357a1.357 1.357 0 1 1-2.713 0 1.357 1.357 0 0 1 2.713 0ZM9 6.5a.5.5 0 0 1 .5-.5h3a.5.5 0 0 1 0 1h-3a.5.5 0 0 1-.5-.5ZM8.5 10a2.5 2.5 0 0 0 0 5H9a.5.5 0 0 0 0-1h-.5a1.5 1.5 0 0 1 0-3H9a.5.5 0 0 0 0-1h-.5Zm3.5 0a.5.5 0 0 0 0 1h.5a1.5 1.5 0 0 1 0 3H12a.5.5 0 0 0 0 1h.5a2.5 2.5 0 0 0 0-5H12Zm-3.5 2a.5.5 0 0 0 0 1h4a.5.5 0 0 0 0-1h-4Z" fill="#212121"/>
</svg>
